dist/img/blog/17.svg

<svg width="25" height="25" viewBox="0 0 25 25" fill="none" xmlns="http://www.w3.org/2000/svg">
<path fill-rule="evenodd" clip-rule="evenodd" d="M18.3955 4.4591C18.9754 4.52355 19.813 4.749 20.1674 5.23224C20.5862 6.64978 21.005 8.09956 21.3916 9.51688C21.9393 9.13031 24.9998 8.84042 24.9998 10.5156C24.9998 11.7398 23.8401 11.7076 23.0023 11.7076C23.2277 12.1908 23.4211 12.9318 23.4533 13.995C23.4533 16.0246 23.4856 18.0864 23.4856 20.1482C23.4856 20.5348 23.1634 20.8247 22.7768 20.8247H19.7163C19.362 20.8247 19.0398 20.5348 19.0398 20.1482V19.3428H5.9277V20.1482C5.9277 20.5348 5.6378 20.8247 5.25124 20.8247H2.1907C1.83635 20.8247 1.51424 20.5348 1.51424 20.1482C1.51424 18.0864 1.51424 16.0246 1.54646 13.995C1.54646 12.9318 1.73983 12.1908 1.9975 11.7076C1.12768 11.7076 0 11.7398 0 10.4834C0 8.96921 2.93164 9.03363 3.60822 9.51692C3.99479 8.09938 4.38136 6.6496 4.80018 5.23228C5.18675 4.74903 5.99214 4.52356 6.57207 4.45913C10.5346 3.84696 14.4649 3.84696 18.3956 4.45913L18.3955 4.4591ZM4.86444 14.9937C4.73553 14.2528 4.63899 13.5117 4.51009 12.7708C5.83094 12.6741 7.02291 12.803 8.1183 13.1896C8.56934 13.4473 8.92369 13.9306 9.2458 14.4783C9.40693 14.8326 9.40693 15.1227 9.02036 15.2192C7.60282 15.2837 6.2175 15.187 4.86428 14.9938L4.86444 14.9937ZM20.1352 14.9937C20.2318 14.2528 20.3606 13.5117 20.4573 12.7708C19.1686 12.6741 17.9445 12.803 16.8812 13.1896C16.4302 13.4473 16.0758 13.9306 15.7537 14.4783C15.5926 14.8326 15.5926 15.1227 15.9792 15.2192C17.3645 15.2837 18.7498 15.187 20.1352 14.9938L20.1352 14.9937Z" fill="#202125"/>
</svg>

<svg width="25" height="25" viewBox="0 0 25 25" fill="none" xmlns="http://www.w3.org/2000/svg"><path fill-rule="evenodd" clip-rule="evenodd" d="M18.395 4.46c.58.064 1.418.289 1.772.772.42 1.418.838 2.868 1.225 4.285.547-.387 3.608-.677 3.608.999 0 1.224-1.16 1.192-1.998 1.192.226.483.42 1.224.451 2.287 0 2.03.033 4.091.033 6.153 0 .387-.323.677-.71.677h-3.06a.68.68 0 01-.676-.677v-.805H5.928v.805a.66.66 0 01-.677.677h-3.06a.68.68 0 01-.677-.677c0-2.062 0-4.123.032-6.153 0-1.063.194-1.804.452-2.287-.87 0-1.998.032-1.998-1.225 0-1.514 2.932-1.45 3.608-.966.387-1.418.773-2.867 1.192-4.285.387-.483 1.192-.708 1.772-.773a38.29 38.29 0 0111.824 0zM4.865 14.993c-.13-.741-.226-1.482-.355-2.223 1.32-.097 2.513.032 3.608.419.451.257.806.74 1.128 1.288.16.355.16.645-.226.741a22.189 22.189 0 01-4.156-.225zm15.27 0c.097-.741.226-1.482.322-2.223-1.288-.097-2.512.032-3.576.419-.45.257-.805.74-1.127 1.288-.161.355-.161.645.225.741 1.386.065 2.77-.032 4.156-.225z" fill="#202125"/></svg>
